X: 1
T: Black Raven
R: polka
M: 2/4
L: 2/8
Z: Contributed 20021126203735 by Mary Wise wise@communicomm.com
K: G
G|| G2 DG  | B G2 B | Bd  cB | A3 F | F2 DF| A F2 A |Ac BA |G3 G|
G2  DG| B G2 B| Bd cB|c3 c |c2 Ac | B GB | AA GF |G3 d|
d2 ed |B3 B | BG AB|c3 c |c dc | A3 A AF GA| B3 d |
d2 ed | B3 B | BG AB | c3 c | c Ac | B2 GB |AA GF | GG/2G/2 G ||
